svg/300/sharp/event_note.svg

<svg xmlns="http://www.w3.org/2000/svg" width="48" height="48" viewBox="0 -960 960 960"><path d="M290.001-424.616v-45.383h379.998v45.383H290.001Zm0 174.615v-45.383h259.383v45.383H290.001Zm-150 150v-694.613H271.54v-70h50.384v70h317.691v-70h49.229v70h131.155v694.613H140.001Zm45.384-45.384h589.23v-409.614h-589.23v409.614Zm0-454.997h589.23V-749.23h-589.23v148.848Zm0 0V-749.23v148.848Z"/></svg>

<svg xmlns="http://www.w3.org/2000/svg" width="48" height="48" viewBox="0 -960 960 960"><path d="M290-424.62V-470h380v45.38H290ZM290-250v-45.38h259.38V-250H290ZM140-100v-694.61h131.54v-70h50.38v70h317.69v-70h49.23v70H820V-100H140Zm45.39-45.39h589.22V-555H185.39v409.61Zm0-454.99h589.22v-148.85H185.39v148.85Zm0 0v-148.85 148.85Z"/></svg>
